packages/ffe-icons/icons/open/400/sm/move_selection_up.svg

<svg xmlns="http://www.w3.org/2000/svg" height="20" viewBox="0 -960 960 960" width="20"><path d="M312-384q-29.7 0-50.85-21.15Q240-426.3 240-456v-336q0-29.7 21.15-50.85Q282.3-864 312-864h336q29.7 0 50.85 21.15Q720-821.7 720-792v336q0 29.7-21.15 50.85Q677.7-384 648-384H312Zm0-72h336v-336H312v336Zm-35.79 216q-15.21 0-25.71-10.29t-10.5-25.5q0-15.21 10.29-25.71t25.5-10.5q15.21 0 25.71 10.29t10.5 25.5q0 15.21-10.29 25.71t-25.5 10.5Zm0 144Q261-96 250.5-106.29t-10.5-25.5q0-15.21 10.29-25.71t25.5-10.5q15.21 0 25.71 10.29t10.5 25.5q0 15.21-10.29 25.71T276.21-96Zm204 0Q465-96 454.5-106.29t-10.5-25.5q0-15.21 10.29-25.71t25.5-10.5q15.21 0 25.71 10.29t10.5 25.5q0 15.21-10.29 25.71T480.21-96Zm204 0Q669-96 658.5-106.29t-10.5-25.5q0-15.21 10.29-25.71t25.5-10.5q15.21 0 25.71 10.29t10.5 25.5q0 15.21-10.29 25.71T684.21-96Zm0-144q-15.21 0-25.71-10.29t-10.5-25.5q0-15.21 10.29-25.71t25.5-10.5q15.21 0 25.71 10.29t10.5 25.5q0 15.21-10.29 25.71t-25.5 10.5ZM480-624Z"/></svg>

<svg xmlns="http://www.w3.org/2000/svg" height="20" viewBox="0 -960 960 960" width="20"><path d="M312-384q-29.7 0-50.85-21.15Q240-426.3 240-456v-336q0-29.7 21.15-50.85Q282.3-864 312-864h336q29.7 0 50.85 21.15Q720-821.7 720-792v336q0 29.7-21.15 50.85Q677.7-384 648-384H312Zm0-72h336v-336H312v336Zm-35.789 216Q261-240 250.5-250.289q-10.5-10.29-10.5-25.5Q240-291 250.289-301.5q10.29-10.5 25.5-10.5Q291-312 301.5-301.711q10.5 10.29 10.5 25.5Q312-261 301.711-250.5q-10.29 10.5-25.5 10.5Zm0 144Q261-96 250.5-106.289q-10.5-10.29-10.5-25.5Q240-147 250.289-157.5q10.29-10.5 25.5-10.5Q291-168 301.5-157.711q10.5 10.29 10.5 25.5Q312-117 301.711-106.5q-10.29 10.5-25.5 10.5Zm204 0Q465-96 454.5-106.289q-10.5-10.29-10.5-25.5Q444-147 454.289-157.5q10.29-10.5 25.5-10.5Q495-168 505.5-157.711q10.5 10.29 10.5 25.5Q516-117 505.711-106.5q-10.29 10.5-25.5 10.5Zm204 0Q669-96 658.5-106.289q-10.5-10.29-10.5-25.5Q648-147 658.289-157.5q10.29-10.5 25.5-10.5Q699-168 709.5-157.711q10.5 10.29 10.5 25.5Q720-117 709.711-106.5q-10.29 10.5-25.5 10.5Zm0-144Q669-240 658.5-250.289q-10.5-10.29-10.5-25.5Q648-291 658.289-301.5q10.29-10.5 25.5-10.5Q699-312 709.5-301.711q10.5 10.29 10.5 25.5Q720-261 709.711-250.5q-10.29 10.5-25.5 10.5ZM480-624Z"/></svg>
